!!!OTL: 1487. Schaeferleben.
!!!ODT: 1880
!!!ARE: Europa, Mitteleuropa, Deutschland, Hessen, Dillenburg; Westerwald
!!!SCT: E1487
!!!TXL: @@DE
!!!YEM: Copyright 1995, estate of Helmut Schaffrath.
**kern	**text
*ICvox	*
*M4/4	*
*met(c)	*
*k[f#]	*
*G:	*
=1	=1
!LO:TX:a:t=Ruhig.	!
!LO:TX:a:t=Aus dem untern Weſterwald und aus Dillenburg 1880.	!
{4.g	Ob
8b	ich
4dd	gleich
4dd	ein
=2	=2
4ee	Schä-
4ee	-fer
4dd	bin,
4r}	.
=3	=3
{4.cc	führ
8dd	ich
4b	doch
4g	ein'
=4	=4
4a	frei-
4a	-en
4g	Sinn;
4r}	.
=5	=5
{4dd	frei-
4dd	-er
4cc	Sinn
4cc	und
=6	=6
4b	frei-
8ddL	-es
8bJ	.
4a	Le-
4a}	-ben,
=7	=7
{4dd	iſt
4dd	mit
4cc	lau-
4cc	-ter
=8	=8
4b	Luſt
8ddL	um-
8bJ	.
4a	-ge-
4a}	-ben.
=9	=9
{[4g	Jch
8g]	habs
8b	ge-
4dd	-ſagt
4dd	und
=10	=10
4ee	bleib
4ee	da-
2dd}	-bei
=11	=11
{4cc	Lu-
4a	-ſtig
4b	iſt
4g	die
=12	=12
4a	Schä-
4f#	-fe-
4g	-rei!
4r}	.
==	==
!!!AGN: Staende - Lied, Hirten -,  Schaefer - Lied
!!!ONB: ESAC (Essen Associative Code) Database: ERK3
!!!AMT: simple quadruple
!!!AIN: vox
!!!EED: Helmut Schaffrath
!!!EEV: 1.0
!!!GTL: Staendelieder (Berufslieder). 3. Hirtenlieder. Schaeferlieder.
!!!URL-scan: https://rosdok.uni-rostock.de/mcrviewer/recordIdentifier/rosdok_ppn745177999/iview2/phys_0345.iview2?x=-128.77276441889285&y=1151.6636987742968&scale=0.5870222003877487&rotation=0&layout=singlePageLayout
!!!ENC: Anna Maria Matuszewska
!!!EEV: 2025/03/01
*-	*-
